svg/fluentui-system-icons/ic_fluent_text_align_justify_rotate_270_20_filled.svg

<svg width="20" height="20" viewBox="0 0 20 20" fill="none" xmlns="http://www.w3.org/2000/svg">
<path d="M4.25 18C3.83579 18 3.5 17.6642 3.5 17.25V2.75C3.5 2.33579 3.83579 2 4.25 2C4.66421 2 5 2.33579 5 2.75V17.25C5 17.6642 4.66421 18 4.25 18ZM9.25 18C8.83579 18 8.5 17.6642 8.5 17.25V2.75C8.5 2.33579 8.83579 2 9.25 2C9.66421 2 10 2.33579 10 2.75V17.25C10 17.6642 9.66421 18 9.25 18ZM13.5 17.25C13.5 17.6642 13.8358 18 14.25 18C14.6642 18 15 17.6642 15 17.25V2.75C15 2.33579 14.6642 2 14.25 2C13.8358 2 13.5 2.33579 13.5 2.75V17.25Z" fill="#212121"/>
</svg>

<svg xmlns="http://www.w3.org/2000/svg" width="20" height="20"><path d="M4.25 18a.75.75 0 0 1-.75-.75V2.75a.75.75 0 0 1 1.5 0v14.5a.75.75 0 0 1-.75.75Zm5 0a.75.75 0 0 1-.75-.75V2.75a.75.75 0 0 1 1.5 0v14.5a.75.75 0 0 1-.75.75Zm4.25-.75a.75.75 0 0 0 1.5 0V2.75a.75.75 0 0 0-1.5 0v14.5Z"/></svg>
